!!!COM: Beethoven, Ludwig van
!!!CDT: 1770///-1827///
!!!ODT: 1825///-1826///
!!!OTL: String Quartet No. 14 in C-sharp Minor, Op. 131
!!!OPS: Op. 131
!!!OMV: Mvmt. 6
!!!OMD: Adagio quasi un poco andante
!!!PDT: 1827///
!!!PPP: Mainz
!!!ODE: Dem Baron von Stutterheim gewidmet
!!!MPD: 1825///-1826///
**kern	**dynam	**kern	**dynam	**kern	**dynam	**kern	**dynam
*staff4	*staff4	*staff3	*staff3	*staff2	*staff2	*staff1	*staff1
*Icello	*Icello	*Iviola	*Iviola	*Ivioln	*Ivioln	*Ivioln	*Ivioln
*clefF4	*clefF4	*clefC3	*clefC3	*clefG2	*clefG2	*clefG2	*clefG2
*k[f#c#g#d#a#]	*k[f#c#g#d#a#]	*k[f#c#g#d#a#]	*k[f#c#g#d#a#]	*k[f#c#g#d#a#]	*k[f#c#g#d#a#]	*k[f#c#g#d#a#]	*k[f#c#g#d#a#]
*g#:	*g#:	*g#:	*g#:	*g#:	*g#:	*g#:	*g#:
*M3/4	*M3/4	*M3/4	*M3/4	*M3/4	*M3/4	*M3/4	*M3/4
*MM52	*MM52	*MM52	*MM52	*MM52	*MM52	*MM52	*MM52
4r	.	4r	.	4r	.	4r	.
[2G#\	.	[2g#\	.	[2Bn/	.	[2d#/	.
=2	=2	=2	=2	=2	=2	=2	=2
2G#\]	.	2g#\]	.	2B/]	.	2d#/]	.
(4G#\	p	(4g#\	p	(4B/	p	4d#/	p
=3	=3	=3	=3	=3	=3	=3	=3
2A#\	.	4..f##\	.	2c#/	.	2d#/	.
.	.	16d#\	.	.	.	.	.
4G#\)	.	4g#\	.	4B/)	.	4d#/	.
=4	=4	=4	=4	=4	=4	=4	=4
(4F##\	.	4a#\	.	(4c#/	.	4d#/	.
4G#\	.	2b\)	.	4B/)	.	(4d#/	.
4E\)	.	.	.	4G#/ 4e/	.	4g#/)	.
=5	=5	=5	=5	=5	=5	=5	=5
(4C#/	p	(8.b\L	p	(4c#/	p	(4e/	p
.	.	16a#\Jk	.	.	.	.	.
4D#\)	.	4g#\	.	4d#/)	.	4B/	.
4D#\	.	4f##\)	.	4A#/ 4d#/	.	4c#/)	.
=6	=6	=6	=6	=6	=6	=6	=6
(4G#'\	.	(4g#'\	.	(4G#/ 4d#/	.	4B/	.
4G#'\)	.	4d#'\)	.	4b'\)	.	4r	.
(4G#\	.	[4d#\	.	(4b\	.	(4gg#\	.
=7	=7	=7	=7	=7	=7	=7	=7
2A#\	.	2d#\]	.	2cc#\	.	4..ff##\	.
.	.	.	.	.	.	16dd#\	.
4G#\)	.	[4d#\	.	4b\)	.	4gg#\)	.
=8	=8	=8	=8	=8	=8	=8	=8
(4F##\	.	4d#\]	.	(4cc#\	.	(4aa#\	.
4G#\	.	(4d#\	.	4b\)	.	2bb\)	.
4e\)	.	4g#\)	.	4b\	.	.	.
=9	=9	=9	=9	=9	=9	=9	=9
(4c#\	.	(4e\	.	(4ee\	.	(8.bb\L	.
.	.	.	.	.	.	16aan\Jk	.
4d#\)	.	4g#\	.	4b\	.	4gg#\	.
[4d#\	.	4a#\)	.	4cc#\)	.	4ff##\)	.
=10	=10	=10	=10	=10	=10	=10	=10
(4d#\]	p	(2g#\	p	(2b\	p	(2gg#\	p
4G#\	.	.	.	.	.	.	.
[4A#\)	.	4f#\)	.	4cc#\)	.	4ff#\)	.
=11	=11	=11	=11	=11	=11	=11	=11
2A#\]	.	(8.e\L	.	2.r	.	4r	.
.	.	16d#\Jk)	.	.	.	.	.
.	.	4c#\	.	.	.	4r	.
[4B\	.	4r	.	.	.	(4ee\	.
=12	=12	=12	=12	=12	=12	=12	=12
2B\]	.	4r	.	2.r	.	8.dd#\L	.
.	.	.	.	.	.	16cc#\Jk)	.
.	.	4r	.	.	.	4b\	.
[4F##\	.	4d#\	.	.	.	4r	.
=13	=13	=13	=13	=13	=13	=13	=13
2F##\]	.	(8.c#/L	.	4r	.	2.r	.
.	.	16B/Jk)	.	.	.	.	.
.	.	4A#/	.	4r	.	.	.
[4G#\	.	[4d#\	.	4cc#\	.	.	.
=14	=14	=14	=14	=14	=14	=14	=14
2G#\]	.	(8.d#\L]	.	(8.b/L	.	4r	.
.	.	16c#\Jk)	.	16a#/Jk)	.	.	.
.	.	(4B/	.	(4g#/	.	(8.bb\L	.
.	.	.	.	.	.	16aa#\Jk)	.
(4G#\	.	4d#\)	.	4b\	.	(4gg#\	.
=15	=15	=15	=15	=15	=15	=15	=15
2A#\	.	(4d#\	.	4cc#\	.	4..ff##\	.
.	.	4c#\	.	4dd#\	.	.	.
.	.	.	.	.	.	16dd#\	.
4G#\)	.	[4d#\)	.	(4b\)	.	4gg#\)	.
=16	=16	=16	=16	=16	=16	=16	=16
(4F##\	.	4d#\]	.	4cc#\	.	(4aa#\	.
4G#\	.	(4d#\	.	2b\)	.	2bb\)	.
4e\)	.	4g#\)	.	.	.	.	.
=17	=17	=17	=17	=17	=17	=17	=17
(4c#\	p	(4an\	p	(4e/	p	(8.bb\L	p
.	.	.	.	.	.	16aan\Jk)	.
4d#\)	.	4b\	.	4g#/	.	(4gg#\	.
[4d#\	.	4a#\)	.	4cc#\)	.	4ff##\)	.
=18	=18	=18	=18	=18	=18	=18	=18
(4d#\]	.	2g#\	.	(2b\	.	(2gg#\	.
4G#\)	.	.	.	.	.	.	.
[4A#\	.	[4c#\	.	[4cc#\)	.	4ff#\)	.
=19	=19	=19	=19	=19	=19	=19	=19
2A#\]	.	2c#\]	.	(4cc#\]	.	(8.ee\L	.
.	.	.	.	.	.	16dd#\Jk)	.
.	.	.	.	4f#/)	.	4cc#\	.
[4B\	.	4e\	.	4r	.	4r	.
=20	=20	=20	=20	=20	=20	=20	=20
2B\]	.	(8.d#\L	.	4r	.	2.r	.
.	.	16c#\Jk)	.	.	.	.	.
.	.	4B/	.	4r	.	.	.
[4F##\	.	[4A#/	.	4dd#\	.	.	.
=21	=21	=21	=21	=21	=21	=21	=21
2F##\]	.	2A#/]	.	(8.cc#\L	.	4r	.
.	.	.	.	16b\Jk)	.	.	.
.	.	.	.	4a#/	.	4r	.
[4G#\	.	[4d#\	.	4r	.	4ccc#\	.
=22	=22	=22	=22	=22	=22	=22	=22
2G#\]	.	(8.d#\L]	.	4r	.	(8.bb\L	.
.	.	16c#\Jk)	.	.	.	16aa#\Jk)	.
.	.	(8.B/L	.	(8.dd#\L	.	4gg#\	.
.	.	16A#/Jk)	.	16cc#\Jk)	.	.	.
(4g#\	.	8G#\L	.	8b\L	.	(4gg#\	.
.	.	8dd#\J	.	(8b\J	.	.	.
=23	=23	=23	=23	=23	=23	=23	=23
2a#\	.	2dd#\	.	2cc#\	.	4..ff##\	.
.	.	.	.	.	.	16dd#\	.
4g#\)	.	4dd#\	.	4b\)	.	4gg#\)	.
=24	=24	=24	=24	=24	=24	=24	=24
(4f#\	.	(4ee\	.	(4cc#\	.	(4aa#\	.
4B\	.	4dd#\	.	4b/	.	2bb\)	.
4e\)	.	[4ee\)	.	4g#/	.	.	.
=25	=25	=25	=25	=25	=25	=25	=25
(4c#\	.	8ee\L]	.	8an/L)	.	(8.bb\L	.
.	.	(8e\J	.	(8a/J	.	.	.
.	.	.	.	.	.	16aan\Jk	.
4d#\)	.	4g#\	.	4b\	.	4gg#\	.
4d#\	.	4a#\)	.	4cc#\)	.	4ff##\)	.
=26	=26	=26	=26	=26	=26	=26	=26
[2.G#\	p	(8.an\L	p	(2b#\	p	(8.ff#\L	p
.	.	16g#\Jk	.	.	.	16ee\Jk	.
.	.	4f#\	.	.	.	4dd#\	.
.	.	4e\)	.	4g#/)	.	4cc#\)	.
=27	=27	=27	=27	=27	=27	=27	=27
4.G#\]	.	(8.d#\L	.	(8.f#/L	.	(8.ccn\L	.
.	.	16c#\Jk	.	16e/Jk	.	16a#\Jk	.
.	.	8B#\L	.	8d#/L	.	8g#/L	.
(8G#\	.	8d#\J	.	8cn/J	.	8f#/J	.
8An\)	.	8c#\L)	.	8c#/L)	.	8e\L)	.
(8FF#/	.	[8c#\J	.	[8e/J [8cc#/	.	[8aan\J	.
=28	=28	=28	=28	=28	=28	=28	=28
8FF##/L	.	8c#\L]	.	8e/L] 8cc#/]	.	(8aa\L]	.
8GG#/J	p	(8c#\J	p	(8e/J 8cc#/	p	[8gg#\J)	p
8C#/L	.	8c#\L)	.	&(8e/L&)) 8cc#/	.	16gg#\LL]	.
.	.	.	.	.	.	(16gg#\	.
8GG#/J)	.	(8c#\J	.	(8e/J 8cc#/	.	16ccc#\	.
.	.	.	.	.	.	16eee\JJ	.
8GG#/	p	8B#/)	p	8dd#\)	p	16fff#\LL)	p
.	.	.	.	.	.	(16B#/	.
8r	.	8r	.	8r	.	16.d#/	.
.	.	.	.	.	.	32c#/JJk)	.
==	==	==	==	==	==	==	==
*-	*-	*-	*-	*-	*-	*-	*-
!!!ENC: Craig Stuart Sapp
!!!END: 2004/09/09/
